X: 14493
T: Gan Ainm
R: reel
M: 4/4
K: Edorian
BEED EFGA|BEGB ADFA|BEED EFGA|(3Bcd ef g2ed|
BEED EFGE|DGBG A3d|BEED (3EEE EA|(3Bcd ef g2ed||
B2gB fBed|BcdB ADFA|B2gB fBed|faaf gfed|
B2gB fBed|BcdB ADFA|(3Bcd ef g2fg|afgf edBA||

